X:1
T:Following the Master
T:Following the Master
T:H. A. R. Horton
T:W. G. Templeton, 1900
T:Public Domain Courtesy of the Cyber Hymnal™
T:Public Domain Courtesy of the Cyber Hymnal™
C:H. A. R. Horton
Z:Public Domain
Z:Courtesy of the Cyber Hymnal™
%%score ( 1 2 ) ( 3 4 )
L:1/8
Q:1/4=85
M:4/4
K:D
V:1 treble 
V:2 treble 
V:3 bass 
V:4 bass 
V:1
 [FA][FA] [GB]>[FA] [Fd]2 [FA]2 | [DF]>[DF] [DF][CE] ([B,D][CE]) [DF]2 | %2
w: 1.~Fol- low- ing the Mas- ter,|In a world of sor- * row,|
w: 2.~Fol- low- ing the Mas- ter,|In the gar- den gloom- * y,|
w: 3.~Fol- low- ing the Mas- ter,|In the throng a- surg- * ing,|
w: 4.~Fol- low- ing the Mas- ter,|Up in- to the glo- * ry|
 [Fd][Fd] [Gd]>[Fd] [Gd]2 [GB]2 | [FA][Fd][Ec][DB] [CA]4 | [FA][FA] [GB]>[FA] [Fd]2 [FA]2 | %5
w: As He scat- ters bless- ings|On the na- tions ’round,|Feed- ing starv- ing thou- sands|
w: Where the blood- y sweat drops|Bathe His ten- der face,|Where He pleads the Fa- ther,|
w: Cry- ing out their an- ger|In most cru- el sounds;|Scourg- ing Him with whip- cords,|
w: Of the Fa- ther’s man- sions|Far a- bove the skies;|O, Thou bless- èd Mas- ter,|
 [DF]>[DF] [DF][CE] ([B,D][CE]) [DF]2 | [Fd][Fd] [Gd]>[Fd] [Gd]2 [^EB]2 | %7
w: With the bread of Hea- * ven,|And the hun- gry peo- ple|
w: In the time of sor- * row;|He will lead us gent- ly|
w: And with thorns they crown * Him,|On the cross they nail Him.|
w: How the heart re- joic- * es|In the day of tri- umph;|
 [FA][Fd] [Gc]>[Ge] [Fd]4 ||"^Refrain" [FA][FA] [FA]>[FA] [GB]2 [FA]2 | A4 [Fd]2 z2 | %10
w: Seat- ed on the ground.|||
w: Thro’ this lone- ly place.|Fol- low- ing the bless- èd|Lord, Fol-|
w: See! those blood- y wounds!|||
w: Hal- le- lu- jah rise.|||
 [Fd][Fd] [Gc]>[GA] [GB]2 A2 | A4 !fermata![GA]2 z2 | [FA][FA] [GB]>[FA] [Fd]2 [FA]2 | %13
w: |||
w: * low- ing the bless- èd|Lord, Fol-|* low- ing in sor- row,|
w: |||
w: |||
 [DF][DF] [DF]>[CE] ([B,D][CE]) [DF]2 | [Fd][Fd] [Gd]>[Fd] [Gd]2 [^EB]2 | %15
w: ||
w: Fol- low- ing in tri- * umph,|Where- so- e’er He lead- eth,|
w: ||
w: ||
"^riten." [FA][EA] [GA]>[GA]!p! [FA]4 |] %16
w: |
w: Fol- low- ing the Lord.|
w: |
w: |
V:2
 x8 | x8 | x8 | x8 | x8 | x8 | x8 | x8 || x8 | F2 FF x4 | x6 A2 | G2 EF x4 | x8 | x8 | x8 | x8 |] %16
V:3
 [D,D][D,D] [D,D]>[D,D] [D,A,]2 [D,D]2 | [D,A,]>[D,A,] [D,A,][A,,A,] ([B,,F,][A,,A,]) [D,A,]2 | %2
w: ||
 [D,A,][=CD] [B,D]>[A,D] [G,B,]2 [G,D]2 | [D,D][D,A,][E,A,][E,^G,] [A,,A,]4 | %4
w: ||
 [D,D][D,D] [D,D]>[D,D] [D,A,]2 [D,D]2 | [D,A,]>[D,A,] [D,A,][A,,A,] ([B,,F,][A,,A,]) [D,A,]2 | %6
w: ||
 [D,A,][=CD] [B,D]>[A,D] [G,B,]2 [^G,D]2 | [A,D]A, [A,,A,]>[A,,A,] [D,A,]4 || %8
w: |* bless- * * *|
 [D,D][D,D] [D,D]>[D,D] [D,D]2 [D,D]2 | [D,D]2 [D,D][D,D] [D,A,]2 z2 | %10
w: |* èd Lord, bless-|
 [B,D][B,D] [A,E]>[A,C] [G,D]2 [F,D]2 | [E,C]2 [A,C][A,D] !fermata![A,E]2 z2 | %12
w: |* èd Lord, *|
 [D,D][D,D] [D,D]>[D,D] [D,A,]2 [D,A,]2 | [D,A,][D,A,] [D,A,]>[A,,A,] ([B,,F,][A,,A,]) [D,A,]2 | %14
w: ||
 [D,A,][=CD] [B,D]>[A,D] [G,B,]2 [^G,D]2 | [A,D][A,C] [A,,E]>[A,,E] [D,D]4 |] %16
w: ||
V:4
 x8 | x8 | x8 | x8 | x8 | x8 | x8 | x A, x6 || x8 | x8 | x8 | x8 | x8 | x8 | x8 | x8 |] %16

